build/img/background-massage.svg

<svg width="283" height="127" viewBox="0 0 283 127" fill="none" xmlns="http://www.w3.org/2000/svg">
<path d="M272.277 5.75195H10.4654C4.90975 5.75195 0.395752 10.2702 0.395752 15.8311V97.1597C0.395752 102.721 4.90975 107.239 10.4654 107.239H29.9103C31.6465 115.58 33.3826 126.355 33.3826 126.355L51.0914 107.239H272.277C277.833 107.239 282.347 102.721 282.347 97.1597V15.8311C282.694 10.2702 278.18 5.75195 272.277 5.75195Z" fill="#C4C4C4"/>
<path d="M16.4538 23.2238C16.7745 22.4624 17.0685 21.6466 17.3357 20.7763C17.5495 19.9605 17.6831 19.1447 17.7366 18.3289C17.7366 17.5674 17.603 16.8604 17.3357 16.2077C17.0685 15.6094 16.5874 15.1199 15.8926 14.7392C14.5029 13.9778 13.327 12.9988 12.365 11.8022C11.3494 10.66 10.8417 9.24593 10.8417 7.55988C10.8417 6.5265 11.0287 5.5475 11.4029 4.62289C11.777 3.69828 12.3115 2.88245 13.0063 2.1754C13.6477 1.52273 14.4227 1.00604 15.3314 0.62532C16.24 0.244599 17.2021 0.0542383 18.2176 0.0542383C20.2487 0.0542383 21.9591 0.788486 23.3487 2.25698C24.7384 3.72548 25.4867 5.49311 25.5936 7.55988C25.7539 9.73543 25.4867 11.7478 24.7919 13.597C24.0436 15.5006 23.1884 17.1595 22.2263 18.5736C21.2108 19.9877 20.222 21.1299 19.2599 22.0001C18.2978 22.9247 17.6297 23.523 17.2555 23.7949C17.1486 23.7405 17.015 23.659 16.8547 23.5502L16.6142 23.3054C16.5607 23.251 16.5073 23.2238 16.4538 23.2238ZM34.8937 23.2238C35.2144 22.4624 35.5084 21.6466 35.7756 20.7763C35.9894 19.9605 36.1231 19.1447 36.1765 18.3289C36.1765 17.5674 36.0429 16.8604 35.7756 16.2077C35.5084 15.6094 35.0274 15.1199 34.3325 14.7392C32.9428 13.9778 31.767 12.9988 30.8049 11.8022C29.7893 10.66 29.2816 9.24593 29.2816 7.55988C29.2816 6.5265 29.4686 5.5475 29.8428 4.62289C30.2169 3.69828 30.7514 2.88245 31.4463 2.1754C32.0877 1.52273 32.8627 1.00604 33.7713 0.62532C34.6799 0.244599 35.642 0.0542383 36.6575 0.0542383C38.6886 0.0542383 40.399 0.788486 41.7887 2.25698C43.1783 3.72548 43.9266 5.49311 44.0335 7.55988C44.1939 9.73543 43.9266 11.7478 43.2318 13.597C42.4835 15.5006 41.6283 17.1595 40.6662 18.5736C39.6507 19.9877 38.6619 21.1299 37.6998 22.0001C36.7377 22.9247 36.0696 23.523 35.6955 23.7949C35.5886 23.7405 35.4549 23.659 35.2946 23.5502L35.0541 23.3054C35.0006 23.251 34.9472 23.2238 34.8937 23.2238Z" fill="#0E2EB6"/>
</svg>

<svg width="283" height="127" fill="none" xmlns="http://www.w3.org/2000/svg"><path d="M272.277 5.752H10.465C4.91 5.752.395 10.27.395 15.832V97.16c0 5.561 4.515 10.079 10.07 10.079H29.91c1.736 8.341 3.473 19.116 3.473 19.116l17.708-19.116h221.186c5.556 0 10.07-4.518 10.07-10.08V15.832c.347-5.56-4.167-10.079-10.07-10.079z" fill="#C4C4C4"/><path d="M16.454 23.224c.32-.762.614-1.577.882-2.448.213-.816.347-1.631.4-2.447 0-.762-.133-1.469-.4-2.121-.267-.599-.749-1.088-1.443-1.469a11.663 11.663 0 01-3.528-2.937c-1.016-1.142-1.523-2.556-1.523-4.242a7.78 7.78 0 01.56-2.937 7.437 7.437 0 011.604-2.448 7.017 7.017 0 012.325-1.55 7.393 7.393 0 012.887-.57c2.03 0 3.741.733 5.13 2.202 1.39 1.468 2.139 3.236 2.246 5.303.16 2.175-.107 4.188-.802 6.037-.748 1.904-1.604 3.563-2.566 4.977-1.015 1.414-2.004 2.556-2.966 3.426-.962.925-1.63 1.523-2.005 1.795a3.9 3.9 0 01-.4-.245l-.24-.245c-.054-.054-.108-.081-.161-.081zm18.44 0c.32-.762.614-1.577.882-2.448a12.98 12.98 0 00.4-2.447c0-.762-.133-1.469-.4-2.121-.268-.599-.749-1.088-1.444-1.469a11.664 11.664 0 01-3.527-2.937c-1.016-1.142-1.523-2.556-1.523-4.242a7.78 7.78 0 01.56-2.937 7.436 7.436 0 011.604-2.448 7.018 7.018 0 012.325-1.55 7.393 7.393 0 012.886-.57c2.032 0 3.742.733 5.132 2.202 1.39 1.468 2.138 3.236 2.244 5.303.16 2.175-.106 4.188-.801 6.037-.748 1.904-1.604 3.563-2.566 4.977C39.651 19.988 38.662 21.13 37.7 22c-.962.925-1.63 1.523-2.005 1.795a3.9 3.9 0 01-.4-.245l-.24-.245c-.054-.054-.108-.081-.161-.081z" fill="#0E2EB6"/></svg>
